docs/img/svg/logo.svg

<svg width="84" height="29" viewBox="0 0 84 29" fill="none" xmlns="http://www.w3.org/2000/svg">
<path d="M29.1571 4.5148H19.031L7.71026 24.5H58.2594L55.7103 29H0L16.4272 0H31.5971L29.1571 4.5148ZM59.4084 22.4201H54.2008L64.3518 4.5H59.3884L49.2574 22.3846H44.1631L56.8046 0.0366586H72.0876L59.4084 22.4201ZM51.8938 0.0384615L39.2574 22.3462H13.8086L16.314 17.9231H36.4225L38.9933 13.3846H23.8782L26.4272 8.88462H41.5832L44.0499 4.52997H34.0499L36.6159 0L51.8938 0.0384615ZM79.6347 0C82.0317 0 83.9743 1.98028 83.9743 4.42308C83.9743 6.86588 82.0317 8.84615 79.6347 8.84615C77.2377 8.84615 75.2952 6.86588 75.2952 4.42308C75.2952 1.98028 77.2377 0 79.6347 0ZM78.9932 3.73077L81.1442 2.88462L78.8423 7.26923L80.0876 7.07692L78.5328 7.90077C78.88 8.01492 79.2506 8.07692 79.6347 8.07692C81.6143 8.07692 83.2196 6.44104 83.2196 4.42308C83.2196 2.61454 81.9306 1.11312 80.2377 0.820915L78.9932 3.73077ZM79.6347 0.769231C77.6551 0.769231 76.0498 2.40512 76.0498 4.42308C76.0498 5.90607 76.917 7.18267 78.1623 7.75531L77.9743 6.19231L78.4649 7.19231L79.8234 4.07692L77.7102 4.80769L80.0649 0.7953C79.9238 0.778115 79.7804 0.769231 79.6347 0.769231Z" fill="#203B7A"/>
</svg>

<svg width="84" height="29" fill="none" xmlns="http://www.w3.org/2000/svg"><path d="M29.157 4.515H19.031L7.711 24.5h50.548L55.71 29H0L16.427 0h15.17l-2.44 4.515ZM59.408 22.42h-5.207L64.35 4.5h-4.963l-10.13 17.885h-5.095L56.805.037h15.283L59.408 22.42ZM51.894.038 39.257 22.346H13.81l2.505-4.423h20.108l2.571-4.538H23.878l2.55-4.5h15.155L44.05 4.53h-10L36.616 0l15.278.038ZM79.634 0c2.398 0 4.34 1.98 4.34 4.423s-1.942 4.423-4.34 4.423c-2.396 0-4.339-1.98-4.339-4.423S77.238 0 79.635 0Zm-.64 3.73 2.15-.845-2.302 4.384 1.246-.192-1.555.824c.347.114.718.176 1.102.176 1.98 0 3.585-1.636 3.585-3.654 0-1.808-1.29-3.31-2.982-3.602l-1.245 2.91Zm.64-2.96c-1.979 0-3.584 1.635-3.584 3.653 0 1.483.867 2.76 2.112 3.332l-.188-1.563.49 1 1.36-3.115-2.114.73L80.065.796a3.555 3.555 0 0 0-.43-.026Z" fill="#203B7A"/></svg>
